X:1
T:Gnossienne No. 1 (theme)
C:Erik Satie
M:4/4
L:1/4
Q:1/4=52
K:Dm
% Hypnotic modal theme — D minor/Phrygian, D4–A4, pickup A; B=Bb(key), _E=Eb, ^G=G#
z3 A | A G F E | D3 E | F G A B | A3 G |
F E D2 | _E D _E D | E3 A | A3 ^G | A G F E | D4 |]
